X: 2016
T: Yâr Yüreğim Yâr
C: Mahmut Güzelgöz
O: Turkey
F: http://compmusic.upf.edu/node/140
N: muhayyer--turku--curcuna--yar_yuregim--urfa
N: makam= muhayyer
N: form= turku
N: usul= curcuna = 10/8
M: 10/8
L: 1/16
K: C _2/4B ^3/4f  
Q: 1/4=246
%%MIDI tuningsystem comma53
z4 f2g4a4a6  | a4 b2a2 b2g4a2 g2a2  | \
w:   |   | 
f4 g2f2 g2e4=f2 e2f2  | 
w:   | 
d4 e2d2 e2c4d2 c2d2  | B4 c2B2 c2A4A3/2c/ dcde  | \
w:   |   | 
=f4 e2f2 e2f2 e2{a}g2 f2e2  | 
w:   | 
d2c2 d2e2 d2e2 d2=f2 e2d2  | c2B2 e2=f2 e2f2 e2g2 f2e2  | \
w:   |   | 
d2c2 d2e2 d2e2 d2=f2 e2d2  | 
w:   | 
c2B2 c2d2 c2d2 c2e2 d2c2  | B2A2 B2c4c2 B2d2 c2B2  | \
w:   |   | 
A3B c2d2 e2f2 g2a2 b2d'2  | 
w:   | 
c'4 {b}c'4 c'2c'2 b2c'4b2  | b2a2 c'2b2 a2a4a6  | \
w:  *  *  Yâr  yü re *  ğim   |  yâr  *  *  *  *  yâr   | 
a4 g2a2 f2g2 e2e4d2  | 
w:  gör  *  ki  *  ne *  ler   | 
d4 d6{g}=f2 e2{f}d2 {e}c2{d}B2  | \
w:  var   *  *  SAZ  | 
{c}c'4 {b}c'4 c'2c'2 b2c'4b2  | b2a2 c'2b2 a2a4a6  | 
w:  *  *  *  Yâr  yü re *  ğim   |  yâr  *  *  *  *  yâr   | 
a4 g2a2 f2g2 e2e4d2  | d4 =f2e2 d2c2 d2e6  | \
w:  gör  *  ki  *  ne *  ler   |  var   *  SAZ  | 
d4 e6e4e4d2  | d6d2 {g}f2{g}e2 d2d2 c2B2  | 
w:  Bu  halk  i çin  |  de  ha  *  *  *  be *  yim   | 
e2d2 d2c2 B2c2 B2B4A2  | A4 A6{c}B2 A2G6  | \
w:  bi *  ze  de  *  gü *  len   |  var    | 
d4 e6e4e4d2  | d6d2 {g}f2{g}e2 d2d2 c2B2  | 
w:  Bu  halk  i çin  |  de  ha  *  *  *  be *  yim   | 
e2d2 d2c2 B2c2 B2B4A2  | A3B c2d2 e2f2 g2a2 b2d'2  | \
w:  bi *  ze  de  *  gü *  len   |  var   SAZ  | 
z4 f2g4a4a6  | 
w:   | 
a4 b2a2 b2g4a2 g2a2  | f4 g2f2 g2e4=f2 e2f2  | \
w:   |   | 
d4 e2d2 e2c4d2 c2d2  | 
w:   | 
B4 c2B2 c2A4A3/2c/ dcde  | =f4 e2f2 e2f2 e2{a}g2 f2e2  | \
w:   |   | 
d2c2 d2e2 d2e2 d2=f2 e2d2  | 
w:   | 
c2B2 e2=f2 e2f2 e2g2 f2e2  | d2c2 d2e2 d2e2 d2=f2 e2d2  | \
w:   |   | 
c2B2 c2d2 c2d2 c2e2 d2c2  | 
w:   | 
B2A2 B2c4c2 B2d2 c2B2  | A3B c2d2 e2f2 g2a2 b2d'2  | \
w:   |   | 
c'4 {b}c'4 c'2c'2 b2c'4b2  | 
w:  *  *  Yâr  yü re *  ğim   | 
b2a2 c'2b2 a2a4a6  | a4 g2a2 f2g2 e2e4d2  | \
w:  yâr  *  *  *  *  yâr   |  gör  *  ki  *  ne *  ler   | 
d4 d6{g}=f2 e2{f}d2 {e}c2{d}B2  | 
w:  var   *  *  SAZ  | 
{c}c'4 {b}c'4 c'2c'2 b2c'4b2  | b2a2 c'2b2 a2a4a6  | \
w:  *  *  *  Yâr  yü re *  ğim   |  yâr  *  *  *  *  yâr   | 
a4 g2a2 f2g2 e2e4d2  | 
w:  gör  *  ki  *  ne *  ler   | 
d4 =f2e2 d2c2 d2e6  | d4 e6e4e4d2  | \
w:  var   *  SAZ  |  Bu  halk  i çin  | 
d6d2 {g}f2{g}e2 d2d2 c2B2  | e2d2 d2c2 B2c2 B2B4A2  | 
w:  de  ha  *  *  *  be *  yim   |  bi *  ze  de  *  gü *  len   | 
A4 A6{c}B2 A2G6  | d4 e6e4e4d2  | d6d2 {g}f2{g}e2 d2d2 c2B2  | \
w:  var    |  Bu  halk  i çin  |  de  ha  *  *  *  be *  yim   | 
e2d2 d2c2 B2c2 B2B4A2  | 
w:  bi *  ze  de  *  gü *  len   | 
A8-A2A8-A2  | |


